src/assets/icons/java-hi.svg

<svg fill="none" height="47" viewBox="0 0 92 47" width="92" xmlns="http://www.w3.org/2000/svg"><g fill="#000"><path d="m40.3617 44.1567h-38.02313l19.01153-19.0116zm-.9506-39.92428-38.973692 39.13528v-18.3842l20.751092-20.75108zm-20.9127 0-18.060992 18.06098v-18.06098z"/><path d="m76.5407.429932c2.5096 5.806848-8.9972 9.392898-10.0666 14.230168-.9803 4.4451 6.8371 9.6103 6.8442 9.6103-1.187-1.8393-2.0604-3.3543-3.251-6.2167-2.014-4.8409 12.266-9.22184 6.4734-17.623768zm7.6427 8.041888s-10.0951.64877-10.6085 7.10078c-.2281 2.8732 2.6557 4.3846 2.7377 6.4735.0677 1.7075-1.711 3.1369-1.711 3.1369s3.2367-.6167 4.2491-3.2225c1.1228-2.8909-2.1888-4.8444-1.8537-7.1578.3208-2.2137 7.1864-6.33088 7.1864-6.33088zm-15.8556 14.91458s-9.2397-.1319-9.2397 2.481c0 2.7305 12.095 2.9337 20.7321 1.2548 0 0 2.2957-1.5792 2.9088-2.1673-5.6607 1.1549-18.5648 1.2832-18.5648.2851 0-.9197 4.1636-1.8536 4.1636-1.8536zm17.7663 0c-.9055.0713-1.8822.4206-2.7662 1.0551 2.0817-.4491 3.8498.8413 3.8498 2.3099 0 3.3081-4.7909 6.4165-4.7909 6.4165s7.4145-.8413 7.4145-6.2739c0-2.4667-1.7146-3.6644-3.7072-3.5076zm-19.9907 5.0761c-1.4187 0-3.5362 1.1122-3.5362 2.1673 0 2.121 10.6655 3.7536 18.5648.6559l-2.7376-1.6825c-5.3542 1.7146-15.214 1.1549-12.291-1.1407zm1.3118 4.7624c-1.9427 0-3.2225 1.1728-3.2225 2.0532 0 2.7234 11.603 2.9979 16.1979.2282l-2.9088-1.8537c-3.4328 1.4509-12.0486 1.6719-10.0666-.4277zm-6.4734 2.4525c-3.1655-.0642-5.2187 1.3581-5.2187 2.538 0 6.2738 32.3957 5.9851 32.3957-.4277 0-1.0659-1.2298-1.5828-1.6825-1.8251 2.6485 6.1312-26.5212 5.6428-26.5212 2.0247 0-.8235 2.146-1.6112 4.135-1.2263l-1.6825-.9696c-.4955-.0748-.9731-.1033-1.4258-.114zm30.5991 4.2205c-4.9264 4.6698-17.4099 6.363-29.9718 3.4792 12.5584 5.1402 29.9112 2.2564 29.9718-3.4792z"/></g></svg>

<svg width="92" height="47" viewBox="0 0 92 47" fill="none" xmlns="http://www.w3.org/2000/svg">
<path d="M40.3617 44.1567H2.33857L21.3501 25.1451L40.3617 44.1567ZM39.4111 4.23242L0.437408 43.3677V24.9835L21.1885 4.23242H39.4111ZM18.4984 4.23242L0.437408 22.2934V4.23242H18.4984Z" fill="black"/>
<path d="M76.5407 0.429932C79.0503 6.23678 67.5435 9.82283 66.4741 14.6601C65.4938 19.1052 73.3112 24.2704 73.3183 24.2704C72.1313 22.4311 71.2579 20.9161 70.0673 18.0537C68.0533 13.2128 82.3333 8.83186 76.5407 0.429932ZM84.1834 8.47182C84.1834 8.47182 74.0883 9.12059 73.5749 15.5726C73.3468 18.4458 76.2306 19.9572 76.3126 22.0461C76.3803 23.7536 74.6016 25.183 74.6016 25.183C74.6016 25.183 77.8383 24.5663 78.8507 21.9605C79.9735 19.0696 76.6619 17.1161 76.997 14.8027C77.3178 12.589 84.1834 8.47182 84.1834 8.47182ZM68.3278 23.3864C68.3278 23.3864 59.0881 23.2545 59.0881 25.8674C59.0881 28.5979 71.1831 28.8011 79.8202 27.1222C79.8202 27.1222 82.1159 25.543 82.729 24.9549C77.0683 26.1098 64.1642 26.2381 64.1642 25.24C64.1642 24.3203 68.3278 23.3864 68.3278 23.3864ZM86.0941 23.3864C85.1886 23.4577 84.2119 23.807 83.3279 24.4415C85.4096 23.9924 87.1777 25.2828 87.1777 26.7514C87.1777 30.0595 82.3868 33.1679 82.3868 33.1679C82.3868 33.1679 89.8013 32.3266 89.8013 26.894C89.8013 24.4273 88.0867 23.2296 86.0941 23.3864ZM66.1034 28.4625C64.6847 28.4625 62.5672 29.5747 62.5672 30.6298C62.5672 32.7508 73.2327 34.3834 81.132 31.2857L78.3944 29.6032C73.0402 31.3178 63.1804 30.7581 66.1034 28.4625ZM67.4152 33.2249C65.4725 33.2249 64.1927 34.3977 64.1927 35.2781C64.1927 38.0015 75.7957 38.276 80.3906 35.5063L77.4818 33.6526C74.049 35.1035 65.4332 35.3245 67.4152 33.2249ZM60.9418 35.6774C57.7763 35.6132 55.7231 37.0355 55.7231 38.2154C55.7231 44.4892 88.1188 44.2005 88.1188 37.7877C88.1188 36.7218 86.889 36.2049 86.4363 35.9626C89.0848 42.0938 59.9151 41.6054 59.9151 37.9873C59.9151 37.1638 62.0611 36.3761 64.0501 36.761L62.3676 35.7914C61.8721 35.7166 61.3945 35.6881 60.9418 35.6774ZM91.5409 39.8979C86.6145 44.5677 74.131 46.2609 61.5691 43.3771C74.1275 48.5173 91.4803 45.6335 91.5409 39.8979Z" fill="black"/>
</svg>
